X:1
T:Beside the Beautiful River
T:Beside the Beautiful River
T:Claude Hinton Bottoms
T:Jennie Wilson, 1904
T:Public Domain Courtesy of the Cyber Hymnal™
C:Claude Hinton Bottoms
Z:Public Domain
Z:Courtesy of the Cyber Hymnal™
%%score ( 1 2 ) ( 3 4 )
L:1/8
Q:1/4=85
M:6/8
K:C
V:1 treble 
V:2 treble 
V:3 bass 
V:4 bass 
V:1
 [CE]/[DF]/ | ([EG]>[^D^F])[EG] [Ec]2 [Gc]/[Gc]/ | (cB)[FA] [EG]2 [EG] | [DG]2 [DG] [B,D][CE][DF] | %4
w: 1.~In the|heaven- * ly clime we shall|meet * some time, Be-|side the beau- ti- ful|
w: 2.~With the|pure * and blest we shall|sweet- * ly rest, Be-|side the beau- ti- ful|
w: 3.~We shall|learn * the song of the|blood- * washed throng, Be-|side the beau- ti- ful|
 [FA]3 [EG]2 [CE]/[DF]/ | ([EG][^D^F])[EG] [Ec]2 [Ge]/[Ge]/ | ([Fd][Fc])[FA] ([Ac][GB])[FA] | %7
w: ri- ver; We shall|find * the joy that has|no * al- loy, * Be-|
w: ri- ver; With all|con- * flicts o’er, tri- als|come * no more, * Be-|
w: ri- ver; While long|ag- * es roll, we shall|Christ * ex- tol * Be-|
 [EG]2 [EG] [FG][FA][FB] | [Fd]3 [Ec]2 ||"^Refrain" [Ec] | [Fd]2 [Fd] [Fd][Ge][Fd] | %11
w: side the beau- ti- ful|ri- ver.|||
w: side the beau- ti- ful|ri- ver.|Be-|side the beau- ti- ful|
w: side the beau- ti- ful|ri- ver.|||
 [Ed]<[Ec][FA] [EG]2 [EG]/[EG]/ | [FA]>[FA][FA] [^FA][FB][Fc] | [^Fe][Fd][FA] [=Fd]2 [FG]/[FG]/ | %14
w: |||
w: ri- ver we’ll stray, In the|glor- i- ous light of e-|ter- ni- ty’s day; And with|
w: |||
 [Ec]>[Ec][Ec] [Ge][Gd][Ge] | [Ff][Ge][^Gd] ([Ac][=GB])[FA] | [EG]2 [EG] [FG][FA][FB] | %17
w: |||
w: saved ones we’ll praise our Re-|deem- er for aye, * Be-|side the beau- ti- ful|
w: |||
 [Fd]3 !fermata![Ec]6 |] %18
w: |
w: ri- ver.|
w: |
V:2
 x | x6 | F2 x4 | x6 | x6 | x6 | x6 | x6 | x5 || x | x6 | x6 | x6 | x6 | x6 | x6 | x6 | x9 |] %18
V:3
 [C,G,]/[C,G,]/ | [C,C]2 [C,C] [C,G,]2 [E,B,]/[E,B,]/ | (A,B,)[F,C] [C,C]2 [C,C] | %3
 [G,B,]2 [G,B,] [G,,G,][G,,G,][G,,B,] | [C,C]3 [C,C]2 [C,G,]/[C,G,]/ | %5
 [C,C]2 [C,C] [C,G,]2 [C,_B,]/[C,B,]/ | [F,A,]2 [F,C] (A,B,)[F,C] | [G,C]2 [G,C] [G,B,][G,D][G,D] | %8
 [G,B,]3 [C,C]2 || [C,G,] | [G,B,]2 [G,B,] [G,B,][G,C][G,B,] | %11
 [A,C]<[A,C][F,C] [C,C]2 [C,C]/[C,C]/ | [F,C]>[F,C][F,C] [D,C][D,C][D,A,] | %13
 [D,C][D,C][D,C] [G,,G,B,]2 [G,B,]/[G,B,]/ | [C,C]>[C,C][C,C] C[B,D][_B,C] | %15
 [A,C][G,C][E,B,] (A,B,)[F,C] | [G,C]2 [G,C] [G,B,][G,D][G,D] | [G,B,]3 !fermata![C,C]6 |] %18
V:4
 x | x6 | F,2 x4 | x6 | x6 | x6 | x3 F,2 x | x6 | x5 || x | x6 | x6 | x6 | x6 | x3 C x2 | %15
 x3 F,2 x | x6 | x9 |] %18

